!!!OTL: 597a. Liebesklage und Abschied.
!!!ARE: Europa, Mitteleuropa, Deutschland, Schwaben; Brandenburg, Oranienburg
!!!SCT: E0597
!!!TXL: @@DE
!!!YEM: Copyright 1995, estate of Helmut Schaffrath.
**kern	**text
*ICvox	*
*M2/4	*
*k[b-e-a-]	*
*E-:	*
=1	=1
!LO:TX:a:t=Langsam.	!
!LO:TX:a:t=Aus Schwaben und dem Brandenburgiſchen (Dranienburg).	!
{4b-	Heut
8.b-L	hab
16a-J	.
=2	=2
8.gL	ich
16cc	.
8b-J}	.
{8a-	die
=3	=3
16gL	Macht
8.b-J	.
4f	all-
=4	=4
4e-	-hier,
4r}	.
=5	=5
{8.e-	ſchön-
16cc	-ſtes
8cc	Kind,
8cc	vor
=6	=6
8.ccL	dei-
16b-J	.
8b-}	-ner
{8g	ver-
=7	=7
4a-	-ſchloß-
4g	-nen
=8	=8
4f	Thür
8r}	.
{(16e-	Wa-
16f)	-rum
=9	=9
8g	ſte-
8g	-heſt
8b-/	du
8g	nicht
=10	=10
8.fL	auf
16g	.
8a-J}	.
{8a-	und
=11	=11
8g	läſ-
8g	-ſeſt
8b-	mich
8g	nicht
=12	=12
4f	ein?
8r}	.
{8f	Wie
=13	=13
8.e-	kannſt
16cc	du
8cc	denn
8cc	ſo
=14	=14
8.b-L	un-
16ee-	.
8b-J}	.
{8a-	-barm-
=15	=15
16gL	-her-
8.b-J	.
4f	-ʒig
=16	=16
4e-	ſein!
4r}	.
==	==
!!!AGN: Liebes - Lied, Klage, Abschied
!!!ONB: ESAC (Essen Associative Code) Database: ERK1
!!!AMT: simple duple
!!!AIN: vox
!!!EED: Helmut Schaffrath
!!!EEV: 1.0
!!!GTL: Liebeslieder [Neuere (aus dem 18. bis 19. Jahrh.) - Liebeslust]
!!!URL-scan: https://rosdok.uni-rostock.de/mcrviewer/recordIdentifier/rosdok_ppn745177662/iview2/phys_0421.iview2?x=-128.77276441889308&y=399.9437367473729&scale=0.5870222003877485&rotation=0&layout=singlePageLayout
!!!ENC: Anna Maria Matuszewska
!!!EEV: 2024/11/12
*-	*-
